icon/cg/hello.svg

<svg viewBox="0 0 24 24" fill="none" xmlns="http://www.w3.org/2000/svg" height="1em" width="1em">
  <path d="M17.5 12C17.5 13.576 16.8371 14.9972 15.7749 16C14.7899 16.9299 13.4615 17.5 12 17.5C10.5385 17.5 9.21007 16.9299 8.22506 16C7.16289 14.9972 6.5 13.576 6.5 12H17.5Z" fill="currentColor"/>
  <path fill-rule="evenodd" clip-rule="evenodd" d="M1 7C1 3.68629 3.68629 1 7 1H17C20.3137 1 23 3.68629 23 7V17C23 20.3137 20.3137 23 17 23H1V7ZM3.75 12C3.75 7.44365 7.44365 3.75 12 3.75C16.5563 3.75 20.25 7.44365 20.25 12C20.25 16.5563 16.5563 20.25 12 20.25C7.44365 20.25 3.75 16.5563 3.75 12Z" fill="currentColor"/>
</svg>

<svg width="24" height="24" fill="none" xmlns="http://www.w3.org/2000/svg"><path d="M17.5 12a5.485 5.485 0 0 1-1.725 4A5.481 5.481 0 0 1 12 17.5c-1.461 0-2.79-.57-3.775-1.5A5.485 5.485 0 0 1 6.5 12h11Z" fill="currentColor"/><path fill-rule="evenodd" clip-rule="evenodd" d="M1 7a6 6 0 0 1 6-6h10a6 6 0 0 1 6 6v10a6 6 0 0 1-6 6H1V7Zm2.75 5a8.25 8.25 0 1 1 16.5 0 8.25 8.25 0 0 1-16.5 0Z" fill="currentColor"/></svg>
